readme-cover.svg

<?xml version="1.0" encoding="utf-8"?>
<!-- Generator: Adobe Illustrator 16.0.0, SVG Export Plug-In . SVG Version: 6.00 Build 0)  -->
<!DOCTYPE svg PUBLIC "-//W3C//DTD SVG 1.1//EN" "http://www.w3.org/Graphics/SVG/1.1/DTD/svg11.dtd">
<svg version="1.1" id="Layer_1" xmlns="http://www.w3.org/2000/svg" xmlns:xlink="http://www.w3.org/1999/xlink" x="0px" y="0px"
	 width="888px" height="275px" viewBox="-80 0 888 275" enable-background="new -80 0 888 275" xml:space="preserve">
<desc  version="4.6" codePlatform="0" snapToGrid="no" showGrid="no" gridStep="20" iVinci="yes"></desc>
<g id="Layer1">
	<g id="Shape1">
		
			<desc  text="" transform="matrix(0.534522,0,0,0.498833,152.669,135.265)" type="0" flag="" mesh="" locked="0" pers-end="0,0" pers-start="0,0" pers-size="0,0" pers-center="0,0" blurRadius="4" blurEnabled="0" shadowOpacity="160" shadowBlur="4" shadowOffsetY="2" shadowOffsetX="0" shadowEnabled="0" markerEnd="0" markerStart="0" strokeStyle="0" font-alignment="1" font-underline="0" font-bold="0" font-pixelSize="20" font-familyName="Helvetica" bounding="rect(-155.501,-155.5,311.001,311)" shapeID="1" basicInfo-starPoints="5" basicInfo-polygonSides="6" basicInfo-roundedRectRadius="12" basicInfo-basicType="1">
			</desc>
		<path id="shapePath1" fill="#E22B4A" d="M69.55,57.697h166.238v155.137H69.55V57.697z"/>
	</g>
	<g id="Shape2">
		
			<desc  text="" transform="matrix(0.48931,0,0,0.528576,125.844,99.7184)" type="0" flag="" mesh="" locked="0" pers-end="0,0" pers-start="0,0" pers-size="0,0" pers-center="0,0" blurRadius="4" blurEnabled="0" shadowOpacity="160" shadowBlur="4" shadowOffsetY="2" shadowOffsetX="0" shadowEnabled="0" markerEnd="0" markerStart="0" strokeStyle="0" font-alignment="1" font-underline="0" font-bold="0" font-pixelSize="20" font-familyName="Helvetica" bounding="rect(-87.5,-54.5,175,109)" shapeID="2" basicInfo-starPoints="5" basicInfo-polygonSides="6" basicInfo-roundedRectRadius="12" basicInfo-basicType="1">
			</desc>
		<path id="shapePath2" fill="#F7CB34" d="M83.029,70.911h85.629v57.615H83.029V70.911z"/>
	</g>
	<g id="Shape3">
		
			<desc  text="" transform="matrix(0.795882,0,0,0.528576,152.669,170.548)" type="0" flag="" mesh="" locked="0" pers-end="0,0" pers-start="0,0" pers-size="0,0" pers-center="0,0" blurRadius="4" blurEnabled="0" shadowOpacity="160" shadowBlur="4" shadowOffsetY="2" shadowOffsetX="0" shadowEnabled="0" markerEnd="0" markerStart="0" strokeStyle="0" font-alignment="1" font-underline="0" font-bold="0" font-pixelSize="20" font-familyName="Helvetica" bounding="rect(-87.5004,-54.5,175,109)" shapeID="3" basicInfo-starPoints="5" basicInfo-polygonSides="6" basicInfo-roundedRectRadius="12" basicInfo-basicType="1">
			</desc>
		<path id="shapePath3" fill="#F7CB34" d="M83.029,141.74h139.28v57.615H83.029V141.74z"/>
	</g>
	<g id="Shape4">
		<desc  text="Flex Grid
" transform="matrix(1,0,0,1,441.52,102.853)" type="2" flag="" mesh="" locked="0" pers-end="0,0" pers-start="0,0" pers-size="0,0" pers-center="0,0" blurRadius="4" blurEnabled="0" shadowOpacity="160" shadowBlur="4" shadowOffsetY="2" shadowOffsetX="0" shadowEnabled="0" markerEnd="0" markerStart="0" strokeStyle="0" font-alignment="0" font-underline="0" font-bold="0" font-pixelSize="72" font-familyName="Open Sans" bounding="rect(-192.613,-25.9911,385.226,51.9821)" shapeID="4" basicInfo-starPoints="5" basicInfo-polygonSides="6" basicInfo-roundedRectRadius="12" basicInfo-basicType="0"></desc>
		<path id="shapePath4" d="M266.102,129.822h-10.723V78.424h29.461v8.93h-18.738v13.253h17.437v8.895h-17.437V129.822
			 M304.773,129.822h-10.723V75.119h10.723V129.822 M332.297,97.408c-2.273,0-4.055,0.721-5.344,2.162
			c-1.289,1.442-2.027,3.487-2.215,6.135h15.047c-0.047-2.648-0.738-4.693-2.074-6.135C336.375,98.129,334.57,97.408,332.297,97.408
			 M333.809,130.525c-6.327,0-11.273-1.746-14.836-5.238c-3.562-3.492-5.344-8.437-5.344-14.836c0-6.586,1.646-11.678,4.939-15.275
			s7.846-5.396,13.658-5.396c5.555,0,9.88,1.582,12.973,4.746c3.094,3.164,4.641,7.535,4.641,13.114v5.203h-25.348
			c0.117,3.047,1.02,5.426,2.707,7.136c1.688,1.711,4.055,2.567,7.102,2.567c2.367,0,4.605-0.246,6.715-0.738
			c2.109-0.493,4.312-1.278,6.609-2.356v8.297c-1.875,0.937-3.879,1.635-6.012,2.092
			C339.481,130.297,336.879,130.525,333.809,130.525 M365.164,109.748l-12.656-19.23h12.164l7.629,12.516L380,90.518h12.164
			l-12.797,19.23l13.395,20.074h-12.199l-8.262-13.465l-8.297,13.465H351.84L365.164,109.748 M437.797,100.959h20.391v26.648
			c-3.305,1.078-6.415,1.834-9.334,2.268c-2.918,0.434-5.9,0.65-8.947,0.65c-7.758,0-13.682-2.279-17.771-6.838
			c-4.09-4.558-6.135-11.103-6.135-19.634c0-8.297,2.373-14.766,7.119-19.407s11.326-6.961,19.74-6.961
			c5.273,0,10.359,1.055,15.258,3.164l-3.621,8.719c-3.75-1.875-7.652-2.812-11.707-2.812c-4.711,0-8.484,1.582-11.32,4.746
			s-4.254,7.418-4.254,12.762c0,5.578,1.143,9.837,3.428,12.779c2.285,2.941,5.607,4.412,9.967,4.412
			c2.273,0,4.582-0.234,6.926-0.703v-10.723h-9.738V100.959 M491.504,89.779c1.453,0,2.66,0.105,3.621,0.316l-0.809,10.054
			c-0.867-0.234-1.922-0.351-3.164-0.351c-3.421,0-6.087,0.879-7.998,2.636c-1.91,1.758-2.865,4.219-2.865,7.383v20.004h-10.723
			V90.518h8.121l1.582,6.609h0.527c1.219-2.203,2.865-3.979,4.939-5.326S489.066,89.779,491.504,89.779 M501.797,80.357
			c0-3.492,1.945-5.238,5.836-5.238s5.836,1.746,5.836,5.238c0,1.664-0.486,2.959-1.459,3.885s-2.432,1.389-4.377,1.389
			C503.742,85.631,501.797,83.873,501.797,80.357 M512.977,129.822h-10.723V90.518h10.723V129.822 M536.668,130.525
			c-4.617,0-8.244-1.793-10.881-5.379s-3.955-8.554-3.955-14.906c0-6.445,1.342-11.467,4.025-15.064s6.381-5.396,11.092-5.396
			c4.945,0,8.719,1.922,11.32,5.766h0.352c-0.539-2.93-0.809-5.543-0.809-7.84V75.119h10.758v54.703h-8.227l-2.074-5.097h-0.457
			C545.375,128.592,541.66,130.525,536.668,130.525 M540.43,121.982c2.742,0,4.752-0.797,6.029-2.39
			c1.277-1.594,1.975-4.301,2.092-8.121v-1.161c0-4.218-0.65-7.242-1.951-9.07c-1.301-1.828-3.416-2.742-6.346-2.742
			c-2.391,0-4.248,1.014-5.572,3.041c-1.324,2.027-1.986,4.975-1.986,8.842c0,3.867,0.668,6.767,2.004,8.701
			S537.945,121.982,540.43,121.982z"/>
	</g>
	<g id="Shape5">
		
			<desc  text="Framework" transform="matrix(1,0,0,1,453.66,165.583)" type="2" flag="" mesh="" locked="0" pers-end="0,0" pers-start="0,0" pers-size="0,0" pers-center="0,0" blurRadius="4" blurEnabled="0" shadowOpacity="160" shadowBlur="4" shadowOffsetY="2" shadowOffsetX="0" shadowEnabled="0" markerEnd="0" markerStart="0" strokeStyle="0" font-alignment="1" font-underline="0" font-bold="0" font-pixelSize="72" font-familyName="Open Sans" bounding="rect(-158.665,-31.8154,317.329,63.6305)" shapeID="5" basicInfo-starPoints="5" basicInfo-polygonSides="6" basicInfo-roundedRectRadius="12" basicInfo-basicType="0">
			</desc>
		<path id="shapePath5" d="M266.071,192.723h-10.723v-51.397h29.461v8.93h-18.738v13.254h17.437v8.894h-17.437V192.723
			 M315.957,152.68c1.453,0,2.66,0.106,3.621,0.317l-0.809,10.055c-0.866-0.235-1.922-0.352-3.163-0.352
			c-3.423,0-6.089,0.879-7.998,2.637c-1.91,1.757-2.866,4.218-2.866,7.382v20.004H294.02v-39.304h8.121l1.582,6.608h0.527
			c1.219-2.202,2.866-3.978,4.94-5.325C311.264,153.354,313.52,152.68,315.957,152.68 M350.231,192.723l-2.074-5.343h-0.282
			c-1.804,2.272-3.662,3.849-5.572,4.728s-4.399,1.319-7.471,1.319c-3.773,0-6.744-1.079-8.912-3.235
			c-2.168-2.155-3.252-5.226-3.252-9.211c0-4.172,1.459-7.248,4.377-9.228c2.918-1.981,7.319-3.076,13.201-3.287l6.821-0.211v-1.723
			c0-3.984-2.039-5.978-6.117-5.978c-3.142,0-6.833,0.95-11.075,2.848l-3.55-7.241c4.522-2.367,9.539-3.552,15.046-3.552
			c5.273,0,9.316,1.149,12.129,3.445c2.812,2.297,4.219,5.789,4.219,10.478v26.19H350.231 M347.067,174.512l-4.149,0.141
			c-3.117,0.095-5.437,0.656-6.961,1.688c-1.523,1.031-2.285,2.601-2.285,4.711c0,3.023,1.735,4.535,5.203,4.535
			c2.485,0,4.471-0.715,5.959-2.146c1.489-1.43,2.233-3.327,2.233-5.694V174.512 M403.946,192.723h-10.724v-22.957
			c0-2.836-0.475-4.963-1.424-6.381c-0.949-1.417-2.442-2.126-4.481-2.126c-2.742,0-4.735,1.007-5.978,3.023
			c-1.242,2.016-1.863,5.332-1.863,9.948v18.492h-10.723v-39.304h8.192l1.44,5.026h0.599c1.054-1.805,2.577-3.217,4.569-4.235
			c1.992-1.021,4.277-1.53,6.855-1.53c5.883,0,9.868,1.922,11.954,5.766h0.948c1.055-1.827,2.607-3.245,4.658-4.254
			c2.052-1.008,4.365-1.512,6.943-1.512c4.453,0,7.823,1.144,10.108,3.428c2.284,2.285,3.428,5.947,3.428,10.986v25.629h-10.758
			v-22.957c0-2.836-0.476-4.963-1.425-6.381c-0.948-1.417-2.442-2.126-4.482-2.126c-2.625,0-4.587,0.937-5.888,2.812
			c-1.302,1.875-1.951,4.853-1.951,8.931V192.723 M455.719,160.309c-2.272,0-4.055,0.721-5.344,2.162
			c-1.289,1.442-2.027,3.487-2.215,6.135h15.047c-0.047-2.647-0.738-4.692-2.074-6.135
			C459.797,161.029,457.992,160.309,455.719,160.309 M457.231,193.427c-6.328,0-11.274-1.747-14.837-5.239
			s-5.344-8.437-5.344-14.836c0-6.586,1.647-11.677,4.94-15.274c3.293-3.599,7.845-5.397,13.658-5.397
			c5.554,0,9.879,1.582,12.972,4.747c3.094,3.164,4.641,7.535,4.641,13.113v5.203h-25.348c0.118,3.047,1.02,5.426,2.707,7.137
			s4.055,2.565,7.102,2.565c2.367,0,4.605-0.245,6.715-0.737s4.312-1.278,6.609-2.356v8.297c-1.875,0.938-3.879,1.636-6.012,2.093
			C462.903,193.198,460.301,193.427,457.231,193.427 M512.844,192.723l-3.022-13.746l-4.079-17.367h-0.246l-7.171,31.113h-11.532
			l-11.179-39.304h10.687l4.535,17.401c0.727,3.117,1.465,7.419,2.215,12.902h0.211c0.095-1.781,0.504-4.604,1.23-8.472l0.562-2.989
			l4.853-18.843h11.812l4.606,18.843c0.093,0.516,0.24,1.278,0.438,2.286c0.199,1.007,0.394,2.08,0.58,3.216
			c0.188,1.137,0.357,2.25,0.51,3.34s0.24,1.963,0.264,2.619h0.211c0.211-1.687,0.586-4.002,1.125-6.943
			c0.539-2.94,0.926-4.928,1.161-5.959l4.711-17.401h10.511l-11.32,39.304H512.844 M550.703,173.001c0,3.89,0.639,6.832,1.916,8.824
			c1.277,1.991,3.357,2.987,6.241,2.987c2.858,0,4.916-0.989,6.17-2.97c1.254-1.981,1.88-4.928,1.88-8.842
			c0-3.892-0.632-6.81-1.898-8.754c-1.266-1.945-3.34-2.918-6.223-2.918c-2.859,0-4.922,0.967-6.188,2.899
			C551.336,166.163,550.703,169.087,550.703,173.001 M577.879,173.001c0,6.397-1.687,11.401-5.062,15.011
			c-3.375,3.61-8.075,5.415-14.099,5.415c-3.772,0-7.102-0.827-9.983-2.479c-2.884-1.652-5.099-4.025-6.646-7.119
			c-1.547-3.095-2.32-6.703-2.32-10.828c0-6.422,1.677-11.414,5.027-14.978c3.353-3.562,8.063-5.344,14.133-5.344
			c3.773,0,7.103,0.821,9.984,2.461c2.883,1.642,5.098,3.996,6.645,7.067C577.106,165.277,577.879,168.876,577.879,173.001
			 M608.676,152.68c1.453,0,2.66,0.106,3.621,0.317l-0.808,10.055c-0.868-0.235-1.922-0.352-3.164-0.352
			c-3.422,0-6.088,0.879-7.999,2.637c-1.91,1.757-2.865,4.218-2.865,7.382v20.004h-10.722v-39.304h8.121l1.582,6.608h0.526
			c1.219-2.202,2.865-3.978,4.94-5.325C603.983,153.354,606.239,152.68,608.676,152.68 M629.727,171.348l4.677-5.976l11.004-11.953
			H657.5l-15.609,17.05l16.56,22.254h-12.375l-11.321-15.925l-4.604,3.691v12.233h-10.724V138.02h10.724v24.399l-0.563,8.929
			H629.727z"/>
	</g>
</g>
</svg>

<?xml version="1.0"?>
<svg version="1.1" xmlns="http://www.w3.org/2000/svg" xmlns:xlink="http://www.w3.org/1999/xlink" width="728" height="275">
    <desc iVinci="yes" version="4.6" gridStep="20" showGrid="no" snapToGrid="no" codePlatform="0"/>
    <g id="Layer1" name="Layer 1" opacity="1">
        <g id="Shape1">
            <desc shapeID="1" type="0" basicInfo-basicType="1" basicInfo-roundedRectRadius="12" basicInfo-polygonSides="6" basicInfo-starPoints="5" bounding="rect(-155.501,-155.5,311.001,311)" text="" font-familyName="Helvetica" font-pixelSize="20" font-bold="0" font-underline="0" font-alignment="1" strokeStyle="0" markerStart="0" markerEnd="0" shadowEnabled="0" shadowOffsetX="0" shadowOffsetY="2" shadowBlur="4" shadowOpacity="160" blurEnabled="0" blurRadius="4" transform="matrix(0.534522,0,0,0.498833,152.669,135.265)" pers-center="0,0" pers-size="0,0" pers-start="0,0" pers-end="0,0" locked="0" mesh="" flag=""/>
            <path id="shapePath1" d="M69.5505,57.6966 L235.788,57.6966 L235.788,212.834 L69.5505,212.834 L69.5505,57.6966 Z" style="stroke:none;fill-rule:evenodd;fill:#e22b4a;fill-opacity:1;"/>
        </g>
        <g id="Shape2">
            <desc shapeID="2" type="0" basicInfo-basicType="1" basicInfo-roundedRectRadius="12" basicInfo-polygonSides="6" basicInfo-starPoints="5" bounding="rect(-87.5,-54.5,175,109)" text="" font-familyName="Helvetica" font-pixelSize="20" font-bold="0" font-underline="0" font-alignment="1" strokeStyle="0" markerStart="0" markerEnd="0" shadowEnabled="0" shadowOffsetX="0" shadowOffsetY="2" shadowBlur="4" shadowOpacity="160" blurEnabled="0" blurRadius="4" transform="matrix(0.48931,0,0,0.528576,125.844,99.7184)" pers-center="0,0" pers-size="0,0" pers-start="0,0" pers-end="0,0" locked="0" mesh="" flag=""/>
            <path id="shapePath2" d="M83.0292,70.911 L168.658,70.911 L168.658,128.526 L83.0292,128.526 L83.0292,70.911 Z" style="stroke:none;fill-rule:evenodd;fill:#f7cb34;fill-opacity:1;"/>
        </g>
        <g id="Shape3">
            <desc shapeID="3" type="0" basicInfo-basicType="1" basicInfo-roundedRectRadius="12" basicInfo-polygonSides="6" basicInfo-starPoints="5" bounding="rect(-87.5004,-54.5,175,109)" text="" font-familyName="Helvetica" font-pixelSize="20" font-bold="0" font-underline="0" font-alignment="1" strokeStyle="0" markerStart="0" markerEnd="0" shadowEnabled="0" shadowOffsetX="0" shadowOffsetY="2" shadowBlur="4" shadowOpacity="160" blurEnabled="0" blurRadius="4" transform="matrix(0.795882,0,0,0.528576,152.669,170.548)" pers-center="0,0" pers-size="0,0" pers-start="0,0" pers-end="0,0" locked="0" mesh="" flag=""/>
            <path id="shapePath3" d="M83.0292,141.74 L222.309,141.74 L222.309,199.355 L83.0292,199.355 L83.0292,141.74 Z" style="stroke:none;fill-rule:evenodd;fill:#f7cb34;fill-opacity:1;"/>
        </g>
        <g id="Shape4">
            <desc shapeID="4" type="2" basicInfo-basicType="0" basicInfo-roundedRectRadius="12" basicInfo-polygonSides="6" basicInfo-starPoints="5" bounding="rect(-192.613,-25.9911,385.226,51.9821)" text="Flex Grid&#10;" font-familyName="Open Sans" font-pixelSize="72" font-bold="0" font-underline="0" font-alignment="0" strokeStyle="0" markerStart="0" markerEnd="0" shadowEnabled="0" shadowOffsetX="0" shadowOffsetY="2" shadowBlur="4" shadowOpacity="160" blurEnabled="0" blurRadius="4" transform="matrix(1,0,0,1,441.52,102.853)" pers-center="0,0" pers-size="0,0" pers-start="0,0" pers-end="0,0" locked="0" mesh="" flag=""/>
            <path id="shapePath4" d="M266.102,129.822 L255.379,129.822 L255.379,78.4238 L284.84,78.4238 L284.84,87.3534 L266.102,87.3534 L266.102,100.607 L283.539,100.607 L283.539,109.502 L266.102,109.502 L266.102,129.822 M304.773,129.822 L294.051,129.822 L294.051,75.1191 L304.773,75.1191 L304.773,129.822 M332.297,97.4081 C330.023,97.4081 328.242,98.1288 326.953,99.5702 C325.664,101.012 324.926,103.057 324.738,105.705 L339.785,105.705 C339.738,103.057 339.047,101.012 337.711,99.5702 C336.375,98.1288 334.57,97.4081 332.297,97.4081 M333.809,130.525 C327.481,130.525 322.535,128.779 318.973,125.287 C315.41,121.795 313.629,116.85 313.629,110.451 C313.629,103.865 315.275,98.7734 318.568,95.1757 C321.861,91.578 326.414,89.7792 332.227,89.7792 C337.781,89.7792 342.106,91.3613 345.199,94.5253 C348.293,97.6894 349.84,102.06 349.84,107.639 L349.84,112.842 L324.492,112.842 C324.609,115.889 325.512,118.268 327.199,119.978 C328.887,121.689 331.254,122.545 334.301,122.545 C336.668,122.545 338.906,122.299 341.016,121.807 C343.125,121.314 345.328,120.529 347.625,119.451 L347.625,127.748 C345.75,128.685 343.746,129.383 341.613,129.84 C339.481,130.297 336.879,130.525 333.809,130.525 M365.164,109.748 L352.508,90.5175 L364.672,90.5175 L372.301,103.033 L380,90.5175 L392.164,90.5175 L379.367,109.748 L392.762,129.822 L380.563,129.822 L372.301,116.357 L364.004,129.822 L351.84,129.822 L365.164,109.748 M437.797,100.959 L458.188,100.959 L458.188,127.607 C454.883,128.685 451.772,129.441 448.854,129.875 C445.936,130.309 442.953,130.525 439.906,130.525 C432.148,130.525 426.225,128.246 422.135,123.687 C418.045,119.129 416,112.584 416,104.053 C416,95.7558 418.373,89.287 423.119,84.6464 C427.865,80.0058 434.445,77.6855 442.859,77.6855 C448.133,77.6855 453.219,78.7402 458.117,80.8495 L454.496,89.5683 C450.746,87.6933 446.844,86.7558 442.789,86.7558 C438.078,86.7558 434.305,88.3378 431.469,91.5019 C428.633,94.6659 427.215,98.9198 427.215,104.264 C427.215,109.842 428.357,114.101 430.643,117.043 C432.928,119.984 436.25,121.455 440.609,121.455 C442.883,121.455 445.191,121.221 447.535,120.752 L447.535,110.029 L437.797,110.029 L437.797,100.959 M491.504,89.7792 C492.957,89.7792 494.164,89.8847 495.125,90.0956 L494.316,100.15 C493.449,99.9159 492.395,99.7988 491.152,99.7988 C487.731,99.7988 485.065,100.678 483.154,102.435 C481.244,104.193 480.289,106.654 480.289,109.818 L480.289,129.822 L469.566,129.822 L469.566,90.5175 L477.688,90.5175 L479.27,97.1269 L479.797,97.1269 C481.016,94.9238 482.662,93.1484 484.736,91.8007 C486.811,90.453 489.066,89.7792 491.504,89.7792 M501.797,80.3573 C501.797,76.8652 503.742,75.1191 507.633,75.1191 C511.523,75.1191 513.469,76.8652 513.469,80.3573 C513.469,82.0214 512.982,83.3163 512.01,84.2421 C511.037,85.1679 509.578,85.6308 507.633,85.6308 C503.742,85.6308 501.797,83.873 501.797,80.3573 M512.977,129.822 L502.254,129.822 L502.254,90.5175 L512.977,90.5175 L512.977,129.822 M536.668,130.525 C532.051,130.525 528.424,128.732 525.787,125.146 C523.15,121.56 521.832,116.592 521.832,110.24 C521.832,103.795 523.174,98.7734 525.857,95.1757 C528.541,91.578 532.238,89.7792 536.949,89.7792 C541.895,89.7792 545.668,91.7011 548.27,95.5448 L548.621,95.5448 C548.082,92.6152 547.813,90.0019 547.813,87.705 L547.813,75.1191 L558.57,75.1191 L558.57,129.822 L550.344,129.822 L548.27,124.725 L547.813,124.725 C545.375,128.592 541.66,130.525 536.668,130.525 M540.43,121.982 C543.172,121.982 545.182,121.185 546.459,119.592 C547.736,117.998 548.434,115.291 548.551,111.471 L548.551,110.31 C548.551,106.092 547.9,103.068 546.6,101.24 C545.299,99.412 543.184,98.498 540.254,98.498 C537.863,98.498 536.006,99.5116 534.682,101.539 C533.357,103.566 532.695,106.514 532.695,110.381 C532.695,114.248 533.363,117.148 534.699,119.082 C536.035,121.016 537.945,121.982 540.43,121.982 Z" style="stroke:none;fill-rule:nonzero;fill:#000000;fill-opacity:1;"/>
        </g>
        <g id="Shape5">
            <desc shapeID="5" type="2" basicInfo-basicType="0" basicInfo-roundedRectRadius="12" basicInfo-polygonSides="6" basicInfo-starPoints="5" bounding="rect(-158.665,-31.8154,317.329,63.6305)" text="Framework" font-familyName="Open Sans" font-pixelSize="72" font-bold="0" font-underline="0" font-alignment="1" strokeStyle="0" markerStart="0" markerEnd="0" shadowEnabled="0" shadowOffsetX="0" shadowOffsetY="2" shadowBlur="4" shadowOpacity="160" blurEnabled="0" blurRadius="4" transform="matrix(1,0,0,1,453.66,165.583)" pers-center="0,0" pers-size="0,0" pers-start="0,0" pers-end="0,0" locked="0" mesh="" flag=""/>
            <path id="shapePath5" d="M266.071,192.723 L255.348,192.723 L255.348,141.325 L284.809,141.325 L284.809,150.255 L266.071,150.255 L266.071,163.509 L283.508,163.509 L283.508,172.403 L266.071,172.403 L266.071,192.723 M315.957,152.68 C317.41,152.68 318.617,152.786 319.578,152.997 L318.77,163.052 C317.903,162.817 316.848,162.7 315.606,162.7 C312.184,162.7 309.518,163.579 307.608,165.337 C305.698,167.094 304.742,169.555 304.742,172.719 L304.742,192.723 L294.02,192.723 L294.02,153.419 L302.141,153.419 L303.723,160.028 L304.25,160.028 C305.469,157.825 307.116,156.05 309.19,154.702 C311.264,153.354 313.52,152.68 315.957,152.68 M350.231,192.723 L348.157,187.38 L347.875,187.38 C346.071,189.653 344.213,191.229 342.303,192.108 C340.393,192.987 337.903,193.427 334.832,193.427 C331.059,193.427 328.088,192.348 325.92,190.192 C323.752,188.036 322.668,184.966 322.668,180.981 C322.668,176.809 324.127,173.733 327.045,171.753 C329.963,169.772 334.364,168.677 340.246,168.466 L347.067,168.255 L347.067,166.532 C347.067,162.548 345.028,160.555 340.95,160.555 C337.809,160.555 334.117,161.505 329.875,163.403 L326.325,156.161 C330.848,153.794 335.864,152.61 341.371,152.61 C346.645,152.61 350.688,153.759 353.5,156.055 C356.313,158.352 357.719,161.844 357.719,166.532 L357.719,192.723 L350.231,192.723 M347.067,174.512 L342.918,174.653 C339.801,174.747 337.481,175.309 335.957,176.341 C334.434,177.372 333.672,178.942 333.672,181.052 C333.672,184.075 335.407,185.587 338.875,185.587 C341.36,185.587 343.346,184.872 344.834,183.442 C346.323,182.012 347.067,180.114 347.067,177.747 L347.067,174.512 M403.946,192.723 L393.223,192.723 L393.223,169.766 C393.223,166.93 392.748,164.803 391.799,163.385 C390.85,161.968 389.356,161.259 387.317,161.259 C384.575,161.259 382.582,162.266 381.34,164.282 C380.098,166.298 379.477,169.614 379.477,174.231 L379.477,192.723 L368.754,192.723 L368.754,153.419 L376.946,153.419 L378.387,158.446 L378.985,158.446 C380.039,156.641 381.563,155.229 383.555,154.21 C385.547,153.19 387.832,152.68 390.41,152.68 C396.293,152.68 400.278,154.602 402.364,158.446 L403.313,158.446 C404.367,156.618 405.92,155.2 407.971,154.192 C410.022,153.184 412.336,152.68 414.914,152.68 C419.367,152.68 422.737,153.823 425.022,156.108 C427.307,158.393 428.45,162.055 428.45,167.094 L428.45,192.723 L417.692,192.723 L417.692,169.766 C417.692,166.93 417.217,164.803 416.268,163.385 C415.319,161.968 413.825,161.259 411.785,161.259 C409.16,161.259 407.198,162.196 405.897,164.071 C404.596,165.946 403.946,168.923 403.946,173.001 L403.946,192.723 M455.719,160.309 C453.446,160.309 451.664,161.03 450.375,162.471 C449.086,163.913 448.348,165.958 448.16,168.606 L463.207,168.606 C463.16,165.958 462.469,163.913 461.133,162.471 C459.797,161.03 457.992,160.309 455.719,160.309 M457.231,193.427 C450.903,193.427 445.957,191.68 442.395,188.188 C438.832,184.696 437.051,179.751 437.051,173.352 C437.051,166.766 438.698,161.675 441.991,158.077 C445.284,154.479 449.836,152.68 455.649,152.68 C461.203,152.68 465.528,154.262 468.621,157.427 C471.715,160.591 473.262,164.962 473.262,170.54 L473.262,175.743 L447.914,175.743 C448.032,178.79 448.934,181.169 450.621,182.88 C452.309,184.591 454.676,185.446 457.723,185.446 C460.09,185.446 462.328,185.2 464.438,184.708 C466.547,184.216 468.75,183.43 471.047,182.352 L471.047,190.649 C469.172,191.587 467.168,192.284 465.035,192.741 C462.903,193.198 460.301,193.427 457.231,193.427 M512.844,192.723 L509.821,178.977 L505.742,161.61 L505.496,161.61 L498.325,192.723 L486.793,192.723 L475.614,153.419 L486.301,153.419 L490.836,170.821 C491.563,173.938 492.301,178.239 493.051,183.723 L493.262,183.723 C493.356,181.942 493.766,179.118 494.492,175.251 L495.055,172.262 L499.907,153.419 L511.719,153.419 L516.325,172.262 C516.418,172.778 516.565,173.54 516.764,174.548 C516.963,175.555 517.157,176.628 517.344,177.764 C517.532,178.901 517.701,180.014 517.854,181.104 C518.006,182.194 518.094,183.067 518.117,183.723 L518.328,183.723 C518.539,182.036 518.914,179.721 519.453,176.78 C519.992,173.839 520.379,171.852 520.614,170.821 L525.325,153.419 L535.836,153.419 L524.516,192.723 L512.844,192.723 M550.703,173.001 C550.703,176.891 551.342,179.833 552.619,181.825 C553.897,183.817 555.977,184.813 558.86,184.813 C561.719,184.813 563.776,183.823 565.03,181.843 C566.284,179.862 566.91,176.915 566.91,173.001 C566.91,169.11 566.278,166.192 565.012,164.247 C563.746,162.302 561.672,161.329 558.789,161.329 C555.93,161.329 553.867,162.296 552.602,164.229 C551.336,166.163 550.703,169.087 550.703,173.001 M577.879,173.001 C577.879,179.399 576.192,184.403 572.817,188.012 C569.442,191.622 564.742,193.427 558.719,193.427 C554.946,193.427 551.617,192.6 548.735,190.948 C545.852,189.296 543.637,186.923 542.09,183.829 C540.543,180.735 539.77,177.126 539.77,173.001 C539.77,166.579 541.446,161.587 544.797,158.024 C548.149,154.462 552.86,152.68 558.93,152.68 C562.703,152.68 566.032,153.501 568.914,155.141 C571.797,156.782 574.012,159.137 575.559,162.208 C577.106,165.278 577.879,168.876 577.879,173.001 M608.676,152.68 C610.129,152.68 611.336,152.786 612.297,152.997 L611.489,163.052 C610.621,162.817 609.567,162.7 608.325,162.7 C604.903,162.7 602.237,163.579 600.326,165.337 C598.416,167.094 597.461,169.555 597.461,172.719 L597.461,192.723 L586.739,192.723 L586.739,153.419 L594.86,153.419 L596.442,160.028 L596.969,160.028 C598.188,157.825 599.834,156.05 601.909,154.702 C603.983,153.354 606.239,152.68 608.676,152.68 M629.727,171.348 L634.403,165.372 L645.407,153.419 L657.5,153.419 L641.891,170.469 L658.45,192.723 L646.075,192.723 L634.754,176.798 L630.149,180.489 L630.149,192.723 L619.426,192.723 L619.426,138.02 L630.149,138.02 L630.149,162.419 L629.586,171.348 L629.727,171.348 Z" style="stroke:none;fill-rule:nonzero;fill:#000000;fill-opacity:1;"/>
        </g>
    </g>
</svg>
